X: 29848
T: O'Donnell's
R: hornpipe
M: 4/4
K: Gmajor
|:B>c|(3dcB ge d>Be>d|B>GD>B A2A>G|F>GA>B c>de>f|(3gba (3gfe d2B>c|
dg (3gfe d>Be>d|B>GD>B A2A>G|F>GA>B c>de>f|~g2 b>a g2:|
|:e>f|g>ba>g f>ag>f|e>gf>e (3fgf d2|g>ba>g f>ag>f|e>f (3gfe fdBd|
(3cdc A>c (3BcB G>B|(3ABA F>A G>FE>F|D>EF>G A>Bc>A|(3GBd (3gdB G2:|

